X:133
T:no name
R:polka
Z:id:hn-polka-133
M:2/4
L:1/8
K:Edor
BE EF/A/ | Be dB | AF dF | Bd AF |
BE EF/A/ | Be dB | AF dF | FE E2 :|
|: Be ed/e/ | fe dA | Be dA | Bd AF |
Be ed/e/ | fe dA | B/c/d/B/ AF | FE E2 :|

